Newaita/actions/32/edit-find.svg

<svg height="32" viewBox="0 0 32 32" width="32" xmlns="http://www.w3.org/2000/svg"><g fill="#424242"><path d="m21.777344 20.179688c-.539063.703124-1.171875 1.332031-1.875 1.871093l6.476562 6.476563c.261719.257812.679688.257812.9375 0l.933594-.933594c.261719-.261719.261719-.679688 0-.9375zm0 0"/><path d="m13.890625 2.894531c-6.230469 0-11.246094 5.015625-11.246094 11.246094s5.015625 11.246094 11.246094 11.246094 11.246094-5.015625 11.246094-11.246094-5.015625-11.246094-11.246094-11.246094zm0 2.648438c4.765625 0 8.601563 3.835937 8.601563 8.597656 0 4.765625-3.835938 8.601563-8.601563 8.601563-4.761719 0-8.597656-3.835938-8.597656-8.601563 0-4.761719 3.835937-8.597656 8.597656-8.597656zm0 0"/></g></svg>

<svg xmlns="http://www.w3.org/2000/svg" xmlns:xlink="http://www.w3.org/1999/xlink" width="32px" height="32px" viewBox="0 0 32 32" version="1.1">
<g id="surface1">
     <defs>
  <style id="current-color-scheme" type="text/css">
   .ColorScheme-Text { color:#424242; } .ColorScheme-Highlight { color:#eeeeee; }
  </style>
 </defs>
<path style="fill:currentColor" class="ColorScheme-Text" d="M 21.777344 20.179688 C 21.238281 20.882812 20.605469 21.511719 19.902344 22.050781 L 26.378906 28.527344 C 26.640625 28.785156 27.058594 28.785156 27.316406 28.527344 L 28.25 27.59375 C 28.511719 27.332031 28.511719 26.914062 28.25 26.65625 Z M 21.777344 20.179688 "/>
     <defs>
  <style id="current-color-scheme" type="text/css">
   .ColorScheme-Text { color:#424242; } .ColorScheme-Highlight { color:#eeeeee; }
  </style>
 </defs>
<path style="fill:currentColor" class="ColorScheme-Text" d="M 13.890625 2.894531 C 7.660156 2.894531 2.644531 7.910156 2.644531 14.140625 C 2.644531 20.371094 7.660156 25.386719 13.890625 25.386719 C 20.121094 25.386719 25.136719 20.371094 25.136719 14.140625 C 25.136719 7.910156 20.121094 2.894531 13.890625 2.894531 Z M 13.890625 5.542969 C 18.65625 5.542969 22.492188 9.378906 22.492188 14.140625 C 22.492188 18.90625 18.65625 22.742188 13.890625 22.742188 C 9.128906 22.742188 5.292969 18.90625 5.292969 14.140625 C 5.292969 9.378906 9.128906 5.542969 13.890625 5.542969 Z M 13.890625 5.542969 "/>
</g>
</svg>
